!!!OTL: ES WAR EINE REICHE JUEDIN
!!!ARE: Europa, Mitteleuropa, Deutschland, Oberlahnkreis
!!!SCT: E0098E
!!!YEM: Copyright 1995, estate of Helmut Schaffrath.
**kern
*ICvox
*Ivox
*M6/8
*k[f#c#]
*D:
{8d
=1
4f#
8a
4e
8g
=2
16f#
16e
8d
4.r}
{8a
=3
8.dd
16cc#
8b
4cc#
8b
=4
4.a
4r}
{8f#
=5
4a
8a
4dd
16dd
16dd
=6
4.b
4b}
{8b
=7
8a
8g
8f#
8a
8b
8g
=8
4a
8dd
4dd}
{8dd
=9
8cc#
8cc#
8b
4cc#
8b
=10
4.a
4r}
==
!!!AGN: erzaehlendes Volks - Lied, Sage, Liebe, Leid, Ballade ?
!!!ONB: ESAC (Essen Associative Code) Database: ERK1
!!!AMT: compound duple
!!!AIN: vox
!!!EED: Helmut Schaffrath
!!!EEV: 1.0
*-
